X: 1
T: Tha Mi Sgith
R: strathspey
M: 4/4
L: 1/8
K: Amin
|: AAa2 | g<eg2 | e>dBA | GAB<G |
AAa2 | g<eg2 | e>dBe | A2A2 :|
|: e>dBA | GAB<G | e>dBA | B<dd2 |
e>dBA | GAB<G | edB<e | A2A2 :|


Tune 647	Setting 27863

